localPackages/DesignSystem/Sources/DesignSystem/Resources/Assets.xcassets/IconSet/ic-chart-line.imageset/ic-chart-line.svg

<svg width="24" height="24" viewBox="0 0 24 24" fill="none" xmlns="http://www.w3.org/2000/svg">
<g id="ic-chart-line">
<g id="Icon">
<path d="M3 3.75C3 3.33579 2.66421 3 2.25 3C1.83579 3 1.5 3.33579 1.5 3.75V18.75C1.5 20.8211 3.17893 22.5 5.25 22.5H20.25C20.6642 22.5 21 22.1642 21 21.75C21 21.3358 20.6642 21 20.25 21H5.25C4.00736 21 3 19.9926 3 18.75V3.75Z" fill="#0F0F0F"/>
<path d="M20.7803 8.78033C21.0732 8.48744 21.0732 8.01256 20.7803 7.71967C20.4874 7.42678 20.0126 7.42678 19.7197 7.71967L15 12.4393L11.7803 9.21967C11.4874 8.92678 11.0126 8.92678 10.7197 9.21967L5.46967 14.4697C5.17678 14.7626 5.17678 15.2374 5.46967 15.5303C5.76256 15.8232 6.23744 15.8232 6.53033 15.5303L11.25 10.8107L14.4697 14.0303C14.7626 14.3232 15.2374 14.3232 15.5303 14.0303L20.7803 8.78033Z" fill="#0F0F0F"/>
</g>
</g>
</svg>

<svg xmlns="http://www.w3.org/2000/svg" width="24" height="24" viewBox="0 0 24 24">
  <g class="ic-chart-line">
    <g class="Icon">
      <path d="M3 3.75a.75.75 0 0 0-1.5 0v15a3.75 3.75 0 0 0 3.75 3.75h15a.75.75 0 0 0 0-1.5h-15A2.25 2.25 0 0 1 3 18.75v-15Z"/>
      <path d="M20.78 8.78a.75.75 0 0 0-1.06-1.06L15 12.44l-3.22-3.22a.75.75 0 0 0-1.06 0l-5.25 5.25a.75.75 0 1 0 1.06 1.06l4.72-4.72 3.22 3.22a.75.75 0 0 0 1.06 0l5.25-5.25Z"/>
    </g>
  </g>
</svg>
